;FLAVOR:Marlin
;TIME:6473
;Filament used: 8.19324m
;Layer height: 0.2
;MINX:69.3
;MINY:31.8
;MINZ:0.2
;MAXX:150.7
;MAXY:188.2
;MAXZ:2.6
;Generated with Cura_SteamEngine 4.12.1
M140 S60
M105
M190 S60
M104 S230
M105
M109 S230
M82 ;absolute extrusion mode
; -- START GCODE --
G21                     ;set units to millimetres
G90                     ;set to absolute positioning
M106 S0                 ;set fan speed to zero (turned off)
G28                     ;home all axis
M420 S1                 ;turn on mesh bed levelling if enabled in firmware
G92 E0                  ;zero the extruded length
G1 Z1 F1000             ;move up slightly
G1 Y5.0
G1 X60.0  Z0 E9.0 F1000.0;intro line
G1 X100.0  E21.5 F1000.0 ;continue line
G92 E0                  ;zero the extruded length again
; -- end of START GCODE --
G92 E0
G92 E0
G1 F1800 E-1
;LAYER_COUNT:13
;LAYER:0
M106 S255
G0 F3600 X69.683 Y33.509 Z0.2
;TYPE:SKIRT
G1 F2400 E0
G1 X69.954 Y33.082 E0.01514
G1 X70.289 Y32.704 E0.03026
G1 X70.68 Y32.383 E0.0454
G1 X71.117 Y32.128 E0.06055
G1 X71.588 Y31.944 E0.07568
G1 X72.082 Y31.838 E0.09081
G1 X72.74 Y31.801 E0.11054
G1 X146.839 Y31.8 E2.32862
G1 X147.537 Y31.81 E2.34952
G1 X148.04 Y31.857 E2.36464
G1 X148.53 Y31.983 E2.37979
G1 X148.994 Y32.185 E2.39494
G1 X149.42 Y32.457 E2.41007
G1 X149.798 Y32.792 E2.42518
G1 X150.118 Y33.183 E2.44031
G1 X150.373 Y33.62 E2.45545
G1 X150.556 Y34.091 E2.47058
G1 X150.663 Y34.585 E2.48571
G1 X150.699 Y35.24 E2.50535
G1 X150.7 Y184.304 E6.96745
G1 X150.691 Y185.031 E6.98921
G1 X150.645 Y185.534 E7.00433
G1 X150.52 Y186.024 E7.01947
G1 X150.319 Y186.488 E7.0346
G1 X150.048 Y186.915 E7.04974
G1 X149.713 Y187.294 E7.06488
G1 X149.323 Y187.615 E7.08
G1 X148.887 Y187.871 E7.09514
G1 X148.416 Y188.054 E7.11027
G1 X147.922 Y188.162 E7.1254
G1 X147.26 Y188.199 E7.14525
G1 X73.166 Y188.2 E9.36319
G1 X72.468 Y188.191 E9.38408
G1 X71.964 Y188.144 E9.39924
G1 X71.474 Y188.019 E9.41437
G1 X71.01 Y187.818 E9.42951
G1 X70.584 Y187.547 E9.44462
G1 X70.205 Y187.212 E9.45977
G1 X69.884 Y186.821 E9.47491
G1 X69.629 Y186.385 E9.49003
G1 X69.445 Y185.914 E9.50517
G1 X69.338 Y185.42 E9.5203
G1 X69.301 Y184.744 E9.54056
G1 X69.3 Y35.631 E14.00413
G1 X69.309 Y34.966 E14.02404
G1 X69.356 Y34.462 E14.03919
G1 X69.482 Y33.973 E14.0543
G1 X69.683 Y33.509 E14.06944
G1 F1800 E13.06944
;MESH:Synth Panel R0-BodyPocket.stl
G0 F3600 X71.835 Y35.614
G0 X73.114 Y35.614
G0 X87.951 Y56.251
G0 X88.833 Y57.112
G0 X90.521 Y57.887
G1 F2400 E14.06944
G0 F3600 X90.538 Y57.789
;TYPE:WALL-INNER
G1 F2400 X91.148 Y57.85 E14.08779
G1 X91.767 Y57.819 E14.10634
G1 X92.361 Y57.698 E14.12449
G1 X92.937 Y57.488 E14.14284
G1 X93.476 Y57.195 E14.16121
G1 X93.964 Y56.825 E14.17954
G1 X94.391 Y56.386 E14.19787
G1 X94.75 Y55.888 E14.21625
G1 X95.031 Y55.337 E14.23476
G1 X95.225 Y54.762 E14.25293
G1 X95.331 Y54.158 E14.27128
G1 X95.347 Y53.547 E14.28958
G1 X95.27 Y52.936 E14.30801
G1 X95.104 Y52.347 E14.32633
G1 X94.852 Y51.789 E14.34466
G1 X94.519 Y51.274 E14.36302
G1 X94.113 Y50.814 E14.38138
G1 X93.644 Y50.42 E14.39972
G1 X93.121 Y50.1 E14.41807
G1 X92.557 Y49.862 E14.4364
G1 X91.962 Y49.711 E14.45477
G1 X91.352 Y49.65 E14.47312
G1 X90.733 Y49.681 E14.49168
G1 X90.139 Y49.802 E14.50982
G1 X89.563 Y50.012 E14.52817
G1 X89.024 Y50.305 E14.54654
G1 X88.531 Y50.68 E14.56508
G1 X88.103 Y51.119 E14.58343
G1 X87.75 Y51.612 E14.60158
G1 X87.471 Y52.157 E14.61991
G1 X87.274 Y52.745 E14.63847
G1 X87.169 Y53.342 E14.65662
G1 X87.153 Y53.954 E14.67495
G1 X87.23 Y54.564 E14.69335
G1 X87.396 Y55.153 E14.71167
G1 X87.651 Y55.718 E14.73022
G1 X87.982 Y56.227 E14.7484
G1 X88.392 Y56.691 E14.76693
G1 X88.856 Y57.08 E14.78506
G1 X89.379 Y57.4 E14.80341
G1 X89.95 Y57.64 E14.82195
G1 X90.538 Y57.789 E14.84011
G0 F3600 X90.521 Y57.887
G0 X109.271 Y57.887
G0 X109.288 Y57.789
G1 F2400 X109.898 Y57.85 E14.85846
G1 X110.517 Y57.819 E14.87701
G1 X111.111 Y57.698 E14.89516
G1 X111.687 Y57.488 E14.91351
G1 X112.226 Y57.195 E14.93188
G1 X112.714 Y56.825 E14.95021
G1 X113.141 Y56.386 E14.96854
G1 X113.5 Y55.888 E14.98692
G1 X113.781 Y55.337 E15.00543
G1 X113.975 Y54.762 E15.0236
G1 X114.081 Y54.158 E15.04195
G1 X114.097 Y53.547 E15.06025
G1 X114.02 Y52.936 E15.07868
G1 X113.854 Y52.347 E15.097
G1 X113.602 Y51.789 E15.11533
G1 X113.269 Y51.274 E15.13369
G1 X112.863 Y50.814 E15.15205
G1 X112.394 Y50.42 E15.17039
G1 X111.871 Y50.1 E15.18874
G1 X111.307 Y49.862 E15.20707
G1 X110.712 Y49.711 E15.22544
G1 X110.102 Y49.65 E15.24379
G1 X109.483 Y49.681 E15.26235
G1 X108.889 Y49.802 E15.28049
G1 X108.313 Y50.012 E15.29884
G1 X107.774 Y50.305 E15.31721
G1 X107.281 Y50.68 E15.33575
G1 X106.853 Y51.119 E15.3541
G1 X106.5 Y51.612 E15.37225
G1 X106.221 Y52.157 E15.39058
G1 X106.024 Y52.745 E15.40914
G1 X105.919 Y53.342 E15.42729
G1 X105.903 Y53.954 E15.44561
G1 X105.98 Y54.564 E15.46402
G1 X106.146 Y55.153 E15.48234
G1 X106.401 Y55.718 E15.50089
G1 X106.732 Y56.227 E15.51907
G1 X107.142 Y56.691 E15.5376
G1 X107.606 Y57.08 E15.55573
G1 X108.129 Y57.4 E15.57408
G1 X108.7 Y57.64 E15.59262
G1 X109.288 Y57.789 E15.61078
G0 F3600 X109.271 Y57.887
G0 X105.88 Y72.089
G0 X105.941 Y73.321
G0 X106.366 Y74.487
G0 X107.115 Y75.469
G0 X108.01 Y76.123
G0 X109.271 Y76.637
G0 X109.288 Y76.539
G1 F2400 X109.898 Y76.6 E15.62913
G1 X110.517 Y76.569 E15.64768
G1 X111.111 Y76.448 E15.66583
G1 X111.687 Y76.238 E15.68418
G1 X112.226 Y75.945 E15.70255
G1 X112.714 Y75.575 E15.72088
G1 X113.141 Y75.136 E15.73921
G1 X113.5 Y74.638 E15.75759
G1 X113.781 Y74.087 E15.7761
G1 X113.975 Y73.512 E15.79427
G1 X114.081 Y72.908 E15.81262
G1 X114.097 Y72.297 E15.83092
G1 X114.02 Y71.686 E15.84935
G1 X113.854 Y71.097 E15.86767
G1 X113.602 Y70.539 E15.886
G1 X113.269 Y70.024 E15.90436
G1 X112.863 Y69.564 E15.92272
G1 X112.394 Y69.17 E15.94106
G1 X111.871 Y68.85 E15.95941
G1 X111.307 Y68.612 E15.97774
G1 X110.712 Y68.461 E15.99611
G1 X110.102 Y68.4 E16.01446
G1 X109.483 Y68.431 E16.03301
G1 X108.889 Y68.552 E16.05116
G1 X108.313 Y68.762 E16.06951
G1 X107.774 Y69.055 E16.08788
G1 X107.281 Y69.43 E16.10642
G1 X106.853 Y69.869 E16.12477
G1 X106.5 Y70.362 E16.14292
G1 X106.221 Y70.907 E16.16125
G1 X106.024 Y71.495 E16.17981
G1 X105.919 Y72.092 E16.19796
G1 X105.903 Y72.704 E16.21628
G1 X105.98 Y73.314 E16.23469
G1 X106.146 Y73.903 E16.25301
G1 X106.401 Y74.468 E16.27156
G1 X106.732 Y74.977 E16.28974
G1 X107.142 Y75.441 E16.30827
G1 X107.606 Y75.83 E16.3264
G1 X108.129 Y76.15 E16.34475
G1 X108.7 Y76.39 E16.36329
G1 X109.288 Y76.539 E16.38145
G0 F3600 X109.271 Y76.637
G0 X105.88 Y90.839
G0 X105.941 Y92.071
G0 X106.366 Y93.237
G0 X107.115 Y94.219
G0 X108.01 Y94.873
G0 X109.271 Y95.387
G0 X109.288 Y95.289
G1 F2400 X109.898 Y95.35 E16.3998
G1 X110.517 Y95.319 E16.41835
G1 X111.111 Y95.198 E16.4365
G1 X111.687 Y94.988 E16.45485
G1 X112.226 Y94.695 E16.47321
G1 X112.714 Y94.325 E16.49155
G1 X113.141 Y93.886 E16.50988
G1 X113.5 Y93.388 E16.52826
G1 X113.781 Y92.837 E16.54677
G1 X113.975 Y92.262 E16.56494
G1 X114.081 Y91.658 E16.58329
G1 X114.097 Y91.047 E16.60159
G1 X114.02 Y90.436 E16.62002
G1 X113.854 Y89.847 E16.63834
G1 X113.602 Y89.289 E16.65667
G1 X113.269 Y88.774 E16.67503
G1 X112.863 Y88.314 E16.69339
G1 X112.394 Y87.92 E16.71173
G1 X111.871 Y87.6 E16.73008
G1 X111.307 Y87.362 E16.74841
G1 X110.712 Y87.211 E16.76678
G1 X110.102 Y87.15 E16.78513
G1 X109.483 Y87.181 E16.80368
G1 X108.889 Y87.302 E16.82183
G1 X108.313 Y87.512 E16.84018
G1 X107.774 Y87.805 E16.85855
G1 X107.281 Y88.18 E16.87709
G1 X106.853 Y88.619 E16.89544
G1 X106.5 Y89.112 E16.91359
G1 X106.221 Y89.657 E16.93192
G1 X106.024 Y90.245 E16.95048
G1 X105.919 Y90.842 E16.96863
G1 X105.903 Y91.454 E16.98695
G1 X105.98 Y92.064 E17.00536
G1 X106.146 Y92.653 E17.02368
G1 X106.401 Y93.218 E17.04223
G1 X106.732 Y93.727 E17.06041
G1 X107.142 Y94.191 E17.07894
G1 X107.606 Y94.58 E17.09707
G1 X108.129 Y94.9 E17.11542
G1 X108.7 Y95.14 E17.13396
G1 X109.288 Y95.289 E17.15212
G0 F3600 X109.271 Y95.387
G0 X90.521 Y95.387
G0 X90.538 Y95.289
G1 F2400 X91.148 Y95.35 E17.17047
G1 X91.767 Y95.319 E17.18902
G1 X92.361 Y95.198 E17.20717
G1 X92.937 Y94.988 E17.22552
G1 X93.476 Y94.695 E17.24388
G1 X93.964 Y94.325 E17.26222
G1 X94.391 Y93.886 E17.28055
G1 X94.75 Y93.388 E17.29892
G1 X95.031 Y92.837 E17.31744
G1 X95.225 Y92.262 E17.3356
G1 X95.331 Y91.658 E17.35396
G1 X95.347 Y91.047 E17.37226
G1 X95.27 Y90.436 E17.39069
G1 X95.104 Y89.847 E17.40901
G1 X94.852 Y89.289 E17.42734
G1 X94.519 Y88.774 E17.4457
G1 X94.113 Y88.314 E17.46406
G1 X93.644 Y87.92 E17.4824
G1 X93.121 Y87.6 E17.50075
G1 X92.557 Y87.362 E17.51907
G1 X91.962 Y87.211 E17.53745
G1 X91.352 Y87.15 E17.5558
G1 X90.733 Y87.181 E17.57435
G1 X90.139 Y87.302 E17.5925
G1 X89.563 Y87.512 E17.61085
G1 X89.024 Y87.805 E17.62922
G1 X88.531 Y88.18 E17.64776
G1 X88.103 Y88.619 E17.66611
G1 X87.75 Y89.112 E17.68426
G1 X87.471 Y89.657 E17.70259
G1 X87.274 Y90.245 E17.72115
G1 X87.169 Y90.842 E17.7393
G1 X87.153 Y91.454 E17.75762
G1 X87.23 Y92.064 E17.77603
G1 X87.396 Y92.653 E17.79435
G1 X87.651 Y93.218 E17.8129
G1 X87.982 Y93.727 E17.83108
G1 X88.392 Y94.191 E17.84961
G1 X88.856 Y94.58 E17.86774
G1 X89.379 Y94.9 E17.88609
G1 X89.95 Y95.14 E17.90463
G1 X90.538 Y95.289 E17.92279
G0 F3600 X90.521 Y95.387
G0 X87.13 Y128.339
G0 X87.191 Y129.571
G0 X87.616 Y130.737
G0 X88.365 Y131.719
G0 X89.26 Y132.373
G0 X90.521 Y132.887
G0 X90.538 Y132.789
G1 F2400 X91.148 Y132.85 E17.94114
G1 X91.767 Y132.819 E17.95969
G1 X92.361 Y132.698 E17.97784
G1 X92.937 Y132.488 E17.99619
G1 X93.476 Y132.195 E18.01455
G1 X93.964 Y131.825 E18.03288
G1 X94.391 Y131.386 E18.05122
G1 X94.75 Y130.888 E18.06959
G1 X95.031 Y130.337 E18.08811
G1 X95.225 Y129.762 E18.10627
G1 X95.331 Y129.158 E18.12463
G1 X95.347 Y128.547 E18.14293
G1 X95.27 Y127.936 E18.16136
G1 X95.104 Y127.347 E18.17968
G1 X94.852 Y126.789 E18.19801
G1 X94.519 Y126.274 E18.21636
G1 X94.113 Y125.814 E18.23473
G1 X93.644 Y125.42 E18.25307
G1 X93.121 Y125.1 E18.27142
G1 X92.557 Y124.862 E18.28974
G1 X91.962 Y124.711 E18.30812
G1 X91.352 Y124.65 E18.32647
G1 X90.733 Y124.681 E18.34502
G1 X90.139 Y124.802 E18.36317
G1 X89.563 Y125.012 E18.38152
G1 X89.024 Y125.305 E18.39989
G1 X88.531 Y125.68 E18.41843
G1 X88.103 Y126.119 E18.43678
G1 X87.75 Y126.612 E18.45493
G1 X87.471 Y127.157 E18.47326
G1 X87.274 Y127.745 E18.49182
G1 X87.169 Y128.342 E18.50997
G1 X87.153 Y128.954 E18.52829
G1 X87.23 Y129.564 E18.5467
G1 X87.396 Y130.153 E18.56501
G1 X87.651 Y130.718 E18.58357
G1 X87.982 Y131.227 E18.60174
G1 X88.392 Y131.691 E18.62028
G1 X88.856 Y132.08 E18.6384
G1 X89.379 Y132.4 E18.65676
G1 X89.95 Y132.64 E18.6753
G1 X90.538 Y132.789 E18.69346
G0 F3600 X90.521 Y132.887
G0 X109.271 Y132.887
G0 X109.288 Y132.789
G1 F2400 X109.898 Y132.85 E18.71181
G1 X110.517 Y132.819 E18.73036
G1 X111.111 Y132.698 E18.74851
G1 X111.687 Y132.488 E18.76686
G1 X112.226 Y132.195 E18.78522
G1 X112.714 Y131.825 E18.80355
G1 X113.141 Y131.386 E18.82189
G1 X113.5 Y130.888 E18.84026
G1 X113.781 Y130.337 E18.85878
G1 X113.975 Y129.762 E18.87694
G1 X114.081 Y129.158 E18.8953
G1 X114.097 Y128.547 E18.9136
G1 X114.02 Y127.936 E18.93203
G1 X113.854 Y127.347 E18.95035
G1 X113.602 Y126.789 E18.96868
G1 X113.269 Y126.274 E18.98703
G1 X112.863 Y125.814 E19.0054
G1 X112.394 Y125.42 E19.02374
G1 X111.871 Y125.1 E19.04209
G1 X111.307 Y124.862 E19.06041
G1 X110.712 Y124.711 E19.07879
G1 X110.102 Y124.65 E19.09714
G1 X109.483 Y124.681 E19.11569
G1 X108.889 Y124.802 E19.13384
G1 X108.313 Y125.012 E19.15219
G1 X107.774 Y125.305 E19.17055
G1 X107.281 Y125.68 E19.1891
G1 X106.853 Y126.119 E19.20745
G1 X106.5 Y126.612 E19.2256
G1 X106.221 Y127.157 E19.24393
G1 X106.024 Y127.745 E19.26249
G1 X105.919 Y128.342 E19.28063
G1 X105.903 Y128.954 E19.29896
G1 X105.98 Y129.564 E19.31737
G1 X106.146 Y130.153 E19.33568
G1 X106.401 Y130.718 E19.35424
G1 X106.732 Y131.227 E19.37241
G1 X107.142 Y131.691 E19.39095
G1 X107.606 Y132.08 E19.40907
G1 X108.129 Y132.4 E19.42743
G1 X108.7 Y132.64 E19.44597
G1 X109.288 Y132.789 E19.46413
G0 F3600 X109.271 Y132.887
G0 X128.021 Y132.887
G0 X128.038 Y132.789
G1 F2400 X128.648 Y132.85 E19.48248
G1 X129.267 Y132.819 E19.50103
G1 X129.861 Y132.698 E19.51917
G1 X130.437 Y132.488 E19.53753
G1 X130.976 Y132.195 E19.55589
G1 X131.464 Y131.825 E19.57422
G1 X131.891 Y131.386 E19.59256
G1 X132.25 Y130.888 E19.61093
G1 X132.531 Y130.337 E19.62945
G1 X132.725 Y129.762 E19.64761
G1 X132.831 Y129.158 E19.66597
G1 X132.847 Y128.547 E19.68426
G1 X132.77 Y127.936 E19.7027
G1 X132.604 Y127.347 E19.72102
G1 X132.352 Y126.789 E19.73934
G1 X132.019 Y126.274 E19.7577
G1 X131.613 Y125.814 E19.77607
G1 X131.144 Y125.42 E19.7944
G1 X130.621 Y125.1 E19.81276
G1 X130.057 Y124.862 E19.83108
G1 X129.462 Y124.711 E19.84946
G1 X128.852 Y124.65 E19.86781
G1 X128.233 Y124.681 E19.88636
G1 X127.639 Y124.802 E19.90451
G1 X127.063 Y125.012 E19.92286
G1 X126.524 Y125.305 E19.94122
G1 X126.031 Y125.68 E19.95977
G1 X125.603 Y126.119 E19.97812
G1 X125.25 Y126.612 E19.99627
G1 X124.971 Y127.157 E20.0146
G1 X124.774 Y127.745 E20.03316
G1 X124.669 Y128.342 E20.0513
G1 X124.653 Y128.954 E20.06963
G1 X124.73 Y129.564 E20.08803
G1 X124.896 Y130.153 E20.10635
G1 X125.151 Y130.718 E20.12491
G1 X125.482 Y131.227 E20.14308
G1 X125.892 Y131.691 E20.16162
G1 X126.356 Y132.08 E20.17974
G1 X126.879 Y132.4 E20.1981
G1 X127.45 Y132.64 E20.21664
G1 X128.038 Y132.789 E20.23479
G0 F3600 X128.021 Y132.887
G0 X124.63 Y165.839
G0 X124.691 Y167.071
G0 X125.116 Y168.237
G0 X125.865 Y169.219
G0 X126.76 Y169.873
G0 X128.021 Y170.387
G0 X128.038 Y170.289
G1 F2400 X128.648 Y170.35 E20.25315
G1 X129.267 Y170.319 E20.2717
G1 X129.861 Y170.198 E20.28984
G1 X130.437 Y169.988 E20.3082
G1 X130.976 Y169.695 E20.32656
G1 X131.464 Y169.325 E20.34489
G1 X131.891 Y168.886 E20.36322
G1 X132.25 Y168.388 E20.3816
G1 X132.531 Y167.837 E20.40012
G1 X132.725 Y167.262 E20.41828
G1 X132.831 Y166.658 E20.43664
G1 X132.847 Y166.047 E20.45493
G1 X132.77 Y165.436 E20.47337
G1 X132.604 Y164.847 E20.49169
G1 X132.352 Y164.289 E20.51001
G1 X132.019 Y163.774 E20.52837
G1 X131.613 Y163.314 E20.54674
G1 X131.144 Y162.92 E20.56507
G1 X130.621 Y162.6 E20.58343
G1 X130.057 Y162.362 E20.60175
G1 X129.462 Y162.211 E20.62013
G1 X128.852 Y162.15 E20.63848
G1 X128.233 Y162.181 E20.65703
G1 X127.639 Y162.302 E20.67518
G1 X127.063 Y162.512 E20.69353
G1 X126.524 Y162.805 E20.71189
G1 X126.031 Y163.18 E20.73043
G1 X125.603 Y163.619 E20.74879
G1 X125.25 Y164.112 E20.76694
G1 X124.971 Y164.657 E20.78527
G1 X124.774 Y165.245 E20.80383
G1 X124.669 Y165.842 E20.82197
G1 X124.653 Y166.454 E20.8403
G1 X124.73 Y167.064 E20.8587
G1 X124.896 Y167.653 E20.87702
G1 X125.151 Y168.218 E20.89558
G1 X125.482 Y168.727 E20.91375
G1 X125.892 Y169.191 E20.93229
G1 X126.356 Y169.58 E20.95041
G1 X126.879 Y169.9 E20.96877
G1 X127.45 Y170.14 E20.98731
G1 X128.038 Y170.289 E21.00546
G0 F3600 X128.021 Y170.387
G0 X109.271 Y170.387
G0 X109.288 Y170.289
G1 F2400 X109.898 Y170.35 E21.02382
G1 X110.517 Y170.319 E21.04237
G1 X111.111 Y170.198 E21.06051
G1 X111.687 Y169.988 E21.07887
G1 X112.226 Y169.695 E21.09723
G1 X112.714 Y169.325 E21.11556
G1 X113.141 Y168.886 E21.13389
G1 X113.5 Y168.388 E21.15227
G1 X113.781 Y167.837 E21.17079
G1 X113.975 Y167.262 E21.18895
G1 X114.081 Y166.658 E21.20731
G1 X114.097 Y166.047 E21.2256
G1 X114.02 Y165.436 E21.24404
G1 X113.854 Y164.847 E21.26236
G1 X113.602 Y164.289 E21.28068
G1 X113.269 Y163.774 E21.29904
G1 X112.863 Y163.314 E21.31741
G1 X112.394 Y162.92 E21.33574
G1 X111.871 Y162.6 E21.3541
G1 X111.307 Y162.362 E21.37242
G1 X110.712 Y162.211 E21.3908
G1 X110.102 Y162.15 E21.40915
